X:4901
T:P\'adraig O'Keeffe's
O:england
R:polka
M:2/4
L:1/8
K:A
A>B ce|fg a2|fe ce|f/a/f/e/ ce|A>B ce|fg a2|fe cB|1 A2 AE:|2 A2 A2||
|:a>g fe|fg a2|fe ce|f/a/f/e/ ce|a>g fe|fg a2|fe cB|1 A2 A2:|2 A2 AE||
